germany/municipalities/03459022.svg

<?xml version="1.0" encoding="UTF-8" standalone="no"?>
<!-- Created with Inkscape (http://www.inkscape.org/) -->
<svg
   xmlns:svg="http://www.w3.org/2000/svg"
   xmlns="http://www.w3.org/2000/svg"
   version="1.0"
   width="321.45303"
   height="374.44601"
   id="svg2523">
  <defs
     id="defs2526" />
  <g
     transform="translate(-14.167118,-12.293563)"
     id="g4188">
    <path
       d="M 333.72476,14.188947 L 333.72476,228.6421 C 333.72476,315.09124 262.53011,384.84419 174.73398,384.84419 C 87.257165,384.84419 16.062502,315.09124 16.062502,228.6421 L 16.062502,14.188947 L 333.72476,14.188947"
       id="path523"
       style="opacity:1;fill:#000000;fill-opacity:1;fill-rule:evenodd;stroke:#000000;stroke-width:3.79076815;stroke-miterlimit:4;stroke-dasharray:none;stroke-opacity:1" />
    <rect
       width="313.24808"
       height="177.16476"
       x="18.349264"
       y="16.179405"
       id="rect3925"
       style="opacity:1;fill:#cfb313;fill-opacity:1;fill-rule:evenodd;stroke:none;stroke-width:3.89999986;stroke-linecap:square;stroke-linejoin:miter;stroke-miterlimit:4;stroke-dasharray:none;stroke-opacity:1" />
    <path
       d="M 281.10546,343.52926 C 281.26506,343.67054 297.56786,326.32113 297.41609,325.90822 C 255.20695,211.06765 99.76192,211.06765 49.361655,324.68454 C 48.953893,325.60376 66.018633,343.22411 66.168971,343.09961 C 117.23768,243.38852 237.36847,240.23351 281.10546,343.52926 z"
       id="path3822"
       style="opacity:1;fill:#cfb313;fill-opacity:1;fill-rule:nonzero;stroke:none;stroke-width:0.80000001;marker-mid:none;stroke-miterlimit:4;stroke-dasharray:none;stroke-opacity:1" />
    <path
       d="M 192.83653,383.38473 C 192.86897,383.42436 202.09574,382.05402 202.07619,381.93576 C 195.47141,341.97518 149.44414,346.38044 147.70633,382.04823 C 147.69315,382.31874 157.01639,382.99531 157.04695,382.96039 C 162.71827,359.85188 186.83261,358.96687 192.83653,383.38473 z"
       id="path4098"
       style="opacity:1;fill:#cfb313;fill-opacity:1;fill-rule:nonzero;stroke:none;stroke-width:0.80000001;marker-mid:none;stroke-miterlimit:4;stroke-dasharray:none;stroke-opacity:1" />
    <path
       d="M 153.8143,362.04907 C 156.55048,358.178 157.72192,356.89994 162.63011,354.88248 C 162.80667,354.80991 147.15825,328.59201 136.78943,311.19105 C 131.93988,303.05253 138.07559,289.78092 137.69377,289.96707 C 128.585,294.40799 120.0088,286.26812 119.71098,286.35642 C 117.33386,287.06122 112.90835,289.51992 112.86199,290.75115 C 112.69841,295.09507 113.81275,303.51234 108.22218,308.88117 C 112.41166,307.36315 121.90197,311.10519 126.06648,317.36708 C 137.49987,334.55864 153.62824,362.04647 153.8143,362.04907 z"
       id="path4100"
       style="opacity:1;fill:#cfb313;fill-opacity:1;fill-rule:nonzero;stroke:none;stroke-width:0.80000001;marker-mid:none;stroke-miterlimit:4;stroke-dasharray:none;stroke-opacity:1" />
    <path
       d="M 182.0664,353.14562 C 186.73428,354.57955 189.14915,356.00633 192.45774,359.13165 C 192.59651,359.26273 209.95562,332.41474 221.2812,315.62079 C 226.57824,307.76617 241.19919,307.66329 240.86812,307.39715 C 232.96985,301.04823 236.68048,289.82148 236.47372,289.58966 C 234.82337,287.7393 230.7136,284.78293 229.57995,285.26552 C 225.58025,286.96812 218.43975,291.56219 211.2008,288.79154 C 214.35898,291.93512 215.01655,302.11532 211.12549,308.5507 C 200.44287,326.21857 181.98949,352.97618 182.0664,353.14562 z"
       id="path4104"
       style="opacity:1;fill:#cfb313;fill-opacity:1;fill-rule:nonzero;stroke:none;stroke-width:0.80000001;marker-mid:none;stroke-miterlimit:4;stroke-dasharray:none;stroke-opacity:1" />
    <g
       id="g4146">
      <path
         d="M 60.011061,98.369318 C 46.341446,121.23362 28.398599,133.42939 32.987648,132.80541 C 46.545117,130.962 42.955423,132.51902 52.334321,132.13148 C 56.433778,131.96209 48.6085,151.76933 28.129462,163.0097 C 27.954277,163.10586 54.083412,161.34283 62.387378,162.39958 C 62.686955,162.43771 62.257308,177.73482 62.527394,177.47132 C 62.824094,177.18185 74.8236,178.03514 74.825596,177.95507 C 76.654023,104.92418 72.470255,30.144129 72.310339,30.410438 C 60.211266,50.559144 42.30641,59.782812 42.26005,61.014042 C 42.09647,65.357962 66.989196,59.449227 64.740547,61.779947 C 53.435665,89.731597 35.976734,98.625068 37.471211,98.853094 C 60.067096,102.30074 59.825001,98.366718 60.011061,98.369318 z"
         id="path4106"
         style="fill:#078930;fill-opacity:1;fill-rule:nonzero;stroke:#000000;stroke-width:1.5;marker-mid:none;stroke-miterlimit:4;stroke-dasharray:none;stroke-opacity:1" />
      <path
         d="M 85.740711,98.525216 C 99.410333,121.38952 117.35317,133.58529 112.76412,132.96131 C 99.206663,131.1179 102.79635,132.67492 93.417453,132.28738 C 89.318003,132.11799 97.143283,151.92523 117.62231,163.1656 C 117.7975,163.26176 91.668363,161.49873 83.364401,162.55548 C 83.064821,162.59361 83.494471,178.49834 83.224381,178.23484 C 82.927681,177.94537 70.928181,177.76139 70.926181,177.68132 C 69.097751,104.65043 73.281521,30.300023 73.441441,30.566332 C 85.540511,50.715038 103.44536,59.938706 103.49172,61.169936 C 103.6553,65.513856 78.762581,59.605121 81.011231,61.935841 C 92.316113,89.887496 109.77504,98.780966 108.28056,99.008986 C 85.684681,102.45664 85.926773,98.522616 85.740711,98.525216 z"
         id="path4108"
         style="fill:#078930;fill-opacity:1;fill-rule:nonzero;stroke:#000000;stroke-width:1.5;marker-mid:none;stroke-miterlimit:4;stroke-dasharray:none;stroke-opacity:1" />
      <rect
         width="4.5287652"
         height="142.32101"
         x="70.955276"
         y="33.891182"
         transform="matrix(0.9999537,9.6253176e-3,-1.4959456e-2,0.9998881,0,0)"
         id="rect4120"
         style="fill:#078930;fill-opacity:1;fill-rule:evenodd;stroke:none;stroke-width:1.5;stroke-linecap:square;stroke-linejoin:miter;stroke-miterlimit:4;stroke-dasharray:none;stroke-opacity:1" />
      <path
         d="M 70.863922,34.097723 L 72.753076,31.135566 L 75.19323,34.781298 L 73.304078,35.92059 L 71.178782,35.996542 L 70.863922,34.097723 z"
         id="path4122"
         style="fill:#078930;fill-opacity:1;fill-rule:evenodd;stroke:none;stroke-width:1px;stroke-linecap:butt;stroke-linejoin:miter;stroke-opacity:1" />
    </g>
    <g
       transform="translate(101.48089,0)"
       id="g4152">
      <path
         d="M 60.011061,98.369318 C 46.341446,121.23362 28.398599,133.42939 32.987648,132.80541 C 46.545117,130.962 42.955423,132.51902 52.334321,132.13148 C 56.433778,131.96209 48.6085,151.76933 28.129462,163.0097 C 27.954277,163.10586 54.083412,161.34283 62.387378,162.39958 C 62.686955,162.43771 62.257308,177.73482 62.527394,177.47132 C 62.824094,177.18185 74.8236,178.03514 74.825596,177.95507 C 76.654023,104.92418 72.470255,30.144129 72.310339,30.410438 C 60.211266,50.559144 42.30641,59.782812 42.26005,61.014042 C 42.09647,65.357962 66.989196,59.449227 64.740547,61.779947 C 53.435665,89.731597 35.976734,98.625068 37.471211,98.853094 C 60.067096,102.30074 59.825001,98.366718 60.011061,98.369318 z"
         id="path4154"
         style="fill:#078930;fill-opacity:1;fill-rule:nonzero;stroke:#000000;stroke-width:1.5;marker-mid:none;stroke-miterlimit:4;stroke-dasharray:none;stroke-opacity:1" />
      <path
         d="M 85.740711,98.525216 C 99.410333,121.38952 117.35317,133.58529 112.76412,132.96131 C 99.206663,131.1179 102.79635,132.67492 93.417453,132.28738 C 89.318003,132.11799 97.143283,151.92523 117.62231,163.1656 C 117.7975,163.26176 91.668363,161.49873 83.364401,162.55548 C 83.064821,162.59361 83.494471,178.49834 83.224381,178.23484 C 82.927681,177.94537 70.928181,177.76139 70.926181,177.68132 C 69.097751,104.65043 73.281521,30.300023 73.441441,30.566332 C 85.540511,50.715038 103.44536,59.938706 103.49172,61.169936 C 103.6553,65.513856 78.762581,59.605121 81.011231,61.935841 C 92.316113,89.887496 109.77504,98.780966 108.28056,99.008986 C 85.684681,102.45664 85.926773,98.522616 85.740711,98.525216 z"
         id="path4156"
         style="fill:#078930;fill-opacity:1;fill-rule:nonzero;stroke:#000000;stroke-width:1.5;marker-mid:none;stroke-miterlimit:4;stroke-dasharray:none;stroke-opacity:1" />
      <rect
         width="4.5287652"
         height="142.32101"
         x="70.955276"
         y="33.891182"
         transform="matrix(0.9999537,9.6253176e-3,-1.4959456e-2,0.9998881,0,0)"
         id="rect4158"
         style="fill:#078930;fill-opacity:1;fill-rule:evenodd;stroke:none;stroke-width:1.5;stroke-linecap:square;stroke-linejoin:miter;stroke-miterlimit:4;stroke-dasharray:none;stroke-opacity:1" />
      <path
         d="M 70.863922,34.097723 L 72.753076,31.135566 L 75.19323,34.781298 L 73.304078,35.92059 L 71.178782,35.996542 L 70.863922,34.097723 z"
         id="path4160"
         style="fill:#078930;fill-opacity:1;fill-rule:evenodd;stroke:none;stroke-width:1px;stroke-linecap:butt;stroke-linejoin:miter;stroke-opacity:1" />
    </g>
    <g
       transform="translate(202.96178,0)"
       id="g4162">
      <path
         d="M 60.011061,98.369318 C 46.341446,121.23362 28.398599,133.42939 32.987648,132.80541 C 46.545117,130.962 42.955423,132.51902 52.334321,132.13148 C 56.433778,131.96209 48.6085,151.76933 28.129462,163.0097 C 27.954277,163.10586 54.083412,161.34283 62.387378,162.39958 C 62.686955,162.43771 62.257308,177.73482 62.527394,177.47132 C 62.824094,177.18185 74.8236,178.03514 74.825596,177.95507 C 76.654023,104.92418 72.470255,30.144129 72.310339,30.410438 C 60.211266,50.559144 42.30641,59.782812 42.26005,61.014042 C 42.09647,65.357962 66.989196,59.449227 64.740547,61.779947 C 53.435665,89.731597 35.976734,98.625068 37.471211,98.853094 C 60.067096,102.30074 59.825001,98.366718 60.011061,98.369318 z"
         id="path4164"
         style="fill:#078930;fill-opacity:1;fill-rule:nonzero;stroke:#000000;stroke-width:1.5;marker-mid:none;stroke-miterlimit:4;stroke-dasharray:none;stroke-opacity:1" />
      <path
         d="M 85.740711,98.525216 C 99.410333,121.38952 117.35317,133.58529 112.76412,132.96131 C 99.206663,131.1179 102.79635,132.67492 93.417453,132.28738 C 89.318003,132.11799 97.143283,151.92523 117.62231,163.1656 C 117.7975,163.26176 91.668363,161.49873 83.364401,162.55548 C 83.064821,162.59361 83.494471,178.49834 83.224381,178.23484 C 82.927681,177.94537 70.928181,177.76139 70.926181,177.68132 C 69.097751,104.65043 73.281521,30.300023 73.441441,30.566332 C 85.540511,50.715038 103.44536,59.938706 103.49172,61.169936 C 103.6553,65.513856 78.762581,59.605121 81.011231,61.935841 C 92.316113,89.887496 109.77504,98.780966 108.28056,99.008986 C 85.684681,102.45664 85.926773,98.522616 85.740711,98.525216 z"
         id="path4166"
         style="fill:#078930;fill-opacity:1;fill-rule:nonzero;stroke:#000000;stroke-width:1.5;marker-mid:none;stroke-miterlimit:4;stroke-dasharray:none;stroke-opacity:1" />
      <rect
         width="4.5287652"
         height="142.32101"
         x="70.955276"
         y="33.891182"
         transform="matrix(0.9999537,9.6253176e-3,-1.4959456e-2,0.9998881,0,0)"
         id="rect4168"
         style="fill:#078930;fill-opacity:1;fill-rule:evenodd;stroke:none;stroke-width:1.5;stroke-linecap:square;stroke-linejoin:miter;stroke-miterlimit:4;stroke-dasharray:none;stroke-opacity:1" />
      <path
         d="M 70.863922,34.097723 L 72.753076,31.135566 L 75.19323,34.781298 L 73.304078,35.92059 L 71.178782,35.996542 L 70.863922,34.097723 z"
         id="path4170"
         style="fill:#078930;fill-opacity:1;fill-rule:evenodd;stroke:none;stroke-width:1px;stroke-linecap:butt;stroke-linejoin:miter;stroke-opacity:1" />
    </g>
  </g>
</svg>

<svg xmlns="http://www.w3.org/2000/svg" version="1.0" width="321.453" height="374.446"><path d="M333.725 14.189v214.453c0 86.45-71.195 156.202-158.991 156.202-87.477 0-158.671-69.753-158.671-156.202V14.19h317.662" style="opacity:1;fill:#000;fill-opacity:1;fill-rule:evenodd;stroke:#000;stroke-width:3.79076815;stroke-miterlimit:4;stroke-dasharray:none;stroke-opacity:1" transform="translate(-14.167 -12.294)"/><path style="opacity:1;fill:#cfb313;fill-opacity:1;fill-rule:evenodd;stroke:none;stroke-width:3.89999986;stroke-linecap:square;stroke-linejoin:miter;stroke-miterlimit:4;stroke-dasharray:none;stroke-opacity:1" d="M18.349 16.179h313.248v177.165H18.349z" transform="translate(-14.167 -12.294)"/><path d="M281.105 343.53c.16.14 16.463-17.209 16.311-17.622-42.209-114.84-197.654-114.84-248.054-1.223-.408.919 16.657 18.54 16.807 18.415 51.069-99.711 171.2-102.866 214.936.43z" style="opacity:1;fill:#cfb313;fill-opacity:1;fill-rule:nonzero;stroke:none;stroke-width:.80000001;marker-mid:none;stroke-miterlimit:4;stroke-dasharray:none;stroke-opacity:1" transform="translate(-14.167 -12.294)"/><path d="M192.837 383.385c.032.04 9.259-1.331 9.24-1.45-6.606-39.96-52.633-35.555-54.37.113-.014.27 9.31.947 9.34.912 5.671-23.108 29.786-23.993 35.79.425z" style="opacity:1;fill:#cfb313;fill-opacity:1;fill-rule:nonzero;stroke:none;stroke-width:.80000001;marker-mid:none;stroke-miterlimit:4;stroke-dasharray:none;stroke-opacity:1" transform="translate(-14.167 -12.294)"/><path d="M153.814 362.05c2.736-3.872 3.908-5.15 8.816-7.168.177-.072-15.472-26.29-25.84-43.69-4.85-8.14 1.286-21.411.904-21.225-9.109 4.441-17.685-3.699-17.983-3.61-2.377.704-6.803 3.163-6.849 4.394-.164 4.344.95 12.761-4.64 18.13 4.19-1.518 13.68 2.224 17.844 8.486 11.434 17.192 27.562 44.68 27.748 44.682z" style="opacity:1;fill:#cfb313;fill-opacity:1;fill-rule:nonzero;stroke:none;stroke-width:.80000001;marker-mid:none;stroke-miterlimit:4;stroke-dasharray:none;stroke-opacity:1" transform="translate(-14.167 -12.294)"/><path d="M182.066 353.146c4.668 1.434 7.083 2.86 10.392 5.986.139.13 17.498-26.717 28.823-43.511 5.297-7.855 19.918-7.958 19.587-8.224-7.898-6.349-4.188-17.576-4.394-17.807-1.65-1.85-5.76-4.807-6.894-4.324-4 1.702-11.14 6.296-18.38 3.526 3.159 3.143 3.817 13.323-.075 19.759-10.682 17.668-29.136 44.425-29.059 44.595z" style="opacity:1;fill:#cfb313;fill-opacity:1;fill-rule:nonzero;stroke:none;stroke-width:.80000001;marker-mid:none;stroke-miterlimit:4;stroke-dasharray:none;stroke-opacity:1" transform="translate(-14.167 -12.294)"/><path d="M60.011 98.37c-13.67 22.864-31.612 35.06-27.023 34.435 13.557-1.843 9.967-.286 19.346-.674 4.1-.169-3.726 19.638-24.205 30.879-.175.096 25.954-1.667 34.258-.61.3.038-.13 15.335.14 15.071.297-.29 12.297.564 12.299.484 1.828-73.03-2.356-147.81-2.516-147.545-12.099 20.15-30.004 29.373-30.05 30.604-.164 4.344 24.73-1.565 22.48.766-11.304 27.952-28.763 36.845-27.269 37.073 22.596 3.448 22.354-.486 22.54-.484z" style="fill:#078930;fill-opacity:1;fill-rule:nonzero;stroke:#000;stroke-width:1.5;marker-mid:none;stroke-miterlimit:4;stroke-dasharray:none;stroke-opacity:1" transform="translate(-14.167 -12.294)"/><path d="M85.74 98.525c13.67 22.865 31.613 35.06 27.024 34.436-13.557-1.843-9.968-.286-19.347-.674-4.099-.169 3.726 19.638 24.205 30.879.175.096-25.954-1.667-34.258-.61-.3.038.13 15.942-.14 15.679-.296-.29-12.296-.474-12.298-.554-1.828-73.03 2.356-147.381 2.515-147.115 12.1 20.149 30.004 29.373 30.05 30.604.164 4.344-24.728-1.565-22.48.766 11.305 27.951 28.764 36.845 27.27 37.073-22.596 3.448-22.354-.486-22.54-.484z" style="fill:#078930;fill-opacity:1;fill-rule:nonzero;stroke:#000;stroke-width:1.5;marker-mid:none;stroke-miterlimit:4;stroke-dasharray:none;stroke-opacity:1" transform="translate(-14.167 -12.294)"/><path transform="matrix(.99995 .00963 -.01496 .99989 -14.167 -12.294)" style="fill:#078930;fill-opacity:1;fill-rule:evenodd;stroke:none;stroke-width:1.5;stroke-linecap:square;stroke-linejoin:miter;stroke-miterlimit:4;stroke-dasharray:none;stroke-opacity:1" d="M70.955 33.891h4.529v142.321h-4.529z"/><path d="m70.864 34.098 1.89-2.962 2.44 3.645-1.89 1.14-2.125.076-.315-1.9z" style="fill:#078930;fill-opacity:1;fill-rule:evenodd;stroke:none;stroke-width:1px;stroke-linecap:butt;stroke-linejoin:miter;stroke-opacity:1" transform="translate(-14.167 -12.294)"/><g><path d="M60.011 98.37c-13.67 22.864-31.612 35.06-27.023 34.435 13.557-1.843 9.967-.286 19.346-.674 4.1-.169-3.726 19.638-24.205 30.879-.175.096 25.954-1.667 34.258-.61.3.038-.13 15.335.14 15.071.297-.29 12.297.564 12.299.484 1.828-73.03-2.356-147.81-2.516-147.545-12.099 20.15-30.004 29.373-30.05 30.604-.164 4.344 24.73-1.565 22.48.766-11.304 27.952-28.763 36.845-27.269 37.073 22.596 3.448 22.354-.486 22.54-.484z" style="fill:#078930;fill-opacity:1;fill-rule:nonzero;stroke:#000;stroke-width:1.5;marker-mid:none;stroke-miterlimit:4;stroke-dasharray:none;stroke-opacity:1" transform="translate(87.314 -12.294)"/><path d="M85.74 98.525c13.67 22.865 31.613 35.06 27.024 34.436-13.557-1.843-9.968-.286-19.347-.674-4.099-.169 3.726 19.638 24.205 30.879.175.096-25.954-1.667-34.258-.61-.3.038.13 15.942-.14 15.679-.296-.29-12.296-.474-12.298-.554-1.828-73.03 2.356-147.381 2.515-147.115 12.1 20.149 30.004 29.373 30.05 30.604.164 4.344-24.728-1.565-22.48.766 11.305 27.951 28.764 36.845 27.27 37.073-22.596 3.448-22.354-.486-22.54-.484z" style="fill:#078930;fill-opacity:1;fill-rule:nonzero;stroke:#000;stroke-width:1.5;marker-mid:none;stroke-miterlimit:4;stroke-dasharray:none;stroke-opacity:1" transform="translate(87.314 -12.294)"/><path transform="matrix(.99995 .00963 -.01496 .99989 87.314 -12.294)" style="fill:#078930;fill-opacity:1;fill-rule:evenodd;stroke:none;stroke-width:1.5;stroke-linecap:square;stroke-linejoin:miter;stroke-miterlimit:4;stroke-dasharray:none;stroke-opacity:1" d="M70.955 33.891h4.529v142.321h-4.529z"/><path d="m70.864 34.098 1.89-2.962 2.44 3.645-1.89 1.14-2.125.076-.315-1.9z" style="fill:#078930;fill-opacity:1;fill-rule:evenodd;stroke:none;stroke-width:1px;stroke-linecap:butt;stroke-linejoin:miter;stroke-opacity:1" transform="translate(87.314 -12.294)"/></g><g><path d="M60.011 98.37c-13.67 22.864-31.612 35.06-27.023 34.435 13.557-1.843 9.967-.286 19.346-.674 4.1-.169-3.726 19.638-24.205 30.879-.175.096 25.954-1.667 34.258-.61.3.038-.13 15.335.14 15.071.297-.29 12.297.564 12.299.484 1.828-73.03-2.356-147.81-2.516-147.545-12.099 20.15-30.004 29.373-30.05 30.604-.164 4.344 24.73-1.565 22.48.766-11.304 27.952-28.763 36.845-27.269 37.073 22.596 3.448 22.354-.486 22.54-.484z" style="fill:#078930;fill-opacity:1;fill-rule:nonzero;stroke:#000;stroke-width:1.5;marker-mid:none;stroke-miterlimit:4;stroke-dasharray:none;stroke-opacity:1" transform="translate(188.795 -12.294)"/><path d="M85.74 98.525c13.67 22.865 31.613 35.06 27.024 34.436-13.557-1.843-9.968-.286-19.347-.674-4.099-.169 3.726 19.638 24.205 30.879.175.096-25.954-1.667-34.258-.61-.3.038.13 15.942-.14 15.679-.296-.29-12.296-.474-12.298-.554-1.828-73.03 2.356-147.381 2.515-147.115 12.1 20.149 30.004 29.373 30.05 30.604.164 4.344-24.728-1.565-22.48.766 11.305 27.951 28.764 36.845 27.27 37.073-22.596 3.448-22.354-.486-22.54-.484z" style="fill:#078930;fill-opacity:1;fill-rule:nonzero;stroke:#000;stroke-width:1.5;marker-mid:none;stroke-miterlimit:4;stroke-dasharray:none;stroke-opacity:1" transform="translate(188.795 -12.294)"/><path transform="matrix(.99995 .00963 -.01496 .99989 188.795 -12.294)" style="fill:#078930;fill-opacity:1;fill-rule:evenodd;stroke:none;stroke-width:1.5;stroke-linecap:square;stroke-linejoin:miter;stroke-miterlimit:4;stroke-dasharray:none;stroke-opacity:1" d="M70.955 33.891h4.529v142.321h-4.529z"/><path d="m70.864 34.098 1.89-2.962 2.44 3.645-1.89 1.14-2.125.076-.315-1.9z" style="fill:#078930;fill-opacity:1;fill-rule:evenodd;stroke:none;stroke-width:1px;stroke-linecap:butt;stroke-linejoin:miter;stroke-opacity:1" transform="translate(188.795 -12.294)"/></g></svg>
